images/28692.svg

<?xml version="1.0" encoding="UTF-8"?>
<svg xmlns="http://www.w3.org/2000/svg" xmlns:xlink="http://www.w3.org/1999/xlink" width="300pt" height="300pt" viewBox="0 0 300 300" version="1.1">
<defs>
<g>
<symbol overflow="visible" id="glyph0-0">
<path style="stroke:none;" d="M 0.59375 2.125 L 0.59375 -8.46875 L 6.59375 -8.46875 L 6.59375 2.125 Z M 1.265625 1.453125 L 5.9375 1.453125 L 5.9375 -7.78125 L 1.265625 -7.78125 Z M 1.265625 1.453125 "/>
</symbol>
<symbol overflow="visible" id="glyph0-1">
<path style="stroke:none;" d="M 1.171875 -8.75 L 6.203125 -8.75 L 6.203125 -7.75 L 2.359375 -7.75 L 2.359375 -5.171875 L 5.828125 -5.171875 L 5.828125 -4.171875 L 2.359375 -4.171875 L 2.359375 0 L 1.171875 0 Z M 1.171875 -8.75 "/>
</symbol>
<symbol overflow="visible" id="glyph0-2">
<path style="stroke:none;" d="M 1.171875 -8.75 L 2.765625 -8.75 L 6.65625 -1.4375 L 6.65625 -8.75 L 7.796875 -8.75 L 7.796875 0 L 6.203125 0 L 2.328125 -7.3125 L 2.328125 0 L 1.171875 0 Z M 1.171875 -8.75 "/>
</symbol>
<symbol overflow="visible" id="glyph0-3">
<path style="stroke:none;" d="M 4.734375 -7.953125 C 3.867188 -7.953125 3.179688 -7.628906 2.671875 -6.984375 C 2.171875 -6.347656 1.921875 -5.472656 1.921875 -4.359375 C 1.921875 -3.265625 2.171875 -2.394531 2.671875 -1.75 C 3.179688 -1.113281 3.867188 -0.796875 4.734375 -0.796875 C 5.585938 -0.796875 6.265625 -1.113281 6.765625 -1.75 C 7.273438 -2.394531 7.53125 -3.265625 7.53125 -4.359375 C 7.53125 -5.472656 7.273438 -6.347656 6.765625 -6.984375 C 6.265625 -7.628906 5.585938 -7.953125 4.734375 -7.953125 Z M 4.734375 -8.90625 C 5.953125 -8.90625 6.925781 -8.492188 7.65625 -7.671875 C 8.394531 -6.847656 8.765625 -5.742188 8.765625 -4.359375 C 8.765625 -2.984375 8.394531 -1.882812 7.65625 -1.0625 C 6.925781 -0.238281 5.953125 0.171875 4.734375 0.171875 C 3.503906 0.171875 2.519531 -0.238281 1.78125 -1.0625 C 1.039062 -1.882812 0.671875 -2.984375 0.671875 -4.359375 C 0.671875 -5.742188 1.039062 -6.847656 1.78125 -7.671875 C 2.519531 -8.492188 3.503906 -8.90625 4.734375 -8.90625 Z M 4.734375 -8.90625 "/>
</symbol>
<symbol overflow="visible" id="glyph1-0">
<path style="stroke:none;" d="M 0.5 1.765625 L 0.5 -7.046875 L 5.5 -7.046875 L 5.5 1.765625 Z M 1.0625 1.21875 L 4.9375 1.21875 L 4.9375 -6.484375 L 1.0625 -6.484375 Z M 1.0625 1.21875 "/>
</symbol>
<symbol overflow="visible" id="glyph1-1">
<path style="stroke:none;" d="M 0.484375 -3.140625 L 3.125 -3.140625 L 3.125 -2.34375 L 0.484375 -2.34375 Z M 0.484375 -3.140625 "/>
</symbol>
</g>
</defs>
<g id="surface28465">
<rect x="0" y="0" width="300" height="300" style="fill:rgb(100%,100%,100%);fill-opacity:1;stroke:none;"/>
<path style="fill:none;stroke-width:1.2;stroke-linecap:butt;stroke-linejoin:miter;stroke:rgb(20%,80%,80%);stroke-opacity:1;stroke-miterlimit:10;" d="M 35.25 184.292969 L 49.769531 182.382812 "/>
<path style="fill:none;stroke-width:1.2;stroke-linecap:butt;stroke-linejoin:miter;stroke:rgb(0%,0%,0%);stroke-opacity:1;stroke-miterlimit:10;" d="M 49.769531 182.382812 L 64.289062 180.46875 "/>
<path style=" stroke:none;fill-rule:nonzero;fill:rgb(100%,100%,100%);fill-opacity:1;" d="M 28.25 177.292969 L 35.25 177.292969 L 35.25 191.292969 L 28.25 191.292969 Z M 28.25 177.292969 "/>
<g style="fill:rgb(20%,80%,80%);fill-opacity:1;">
  <use xlink:href="#glyph0-1" x="28.25" y="188.431641"/>
</g>
<path style="fill:none;stroke-width:1.2;stroke-linecap:butt;stroke-linejoin:miter;stroke:rgb(0%,0%,0%);stroke-opacity:1;stroke-miterlimit:10;" d="M 64.289062 180.46875 L 75.496094 153.414062 "/>
<path style="fill:none;stroke-width:1.2;stroke-linecap:butt;stroke-linejoin:miter;stroke:rgb(0%,0%,0%);stroke-opacity:1;stroke-miterlimit:10;" d="M 71.777344 180.402344 L 80.742188 158.753906 "/>
<path style="fill:none;stroke-width:1.2;stroke-linecap:butt;stroke-linejoin:miter;stroke:rgb(0%,0%,0%);stroke-opacity:1;stroke-miterlimit:10;" d="M 82.117188 203.707031 L 64.289062 180.46875 "/>
<path style="fill:none;stroke-width:1.2;stroke-linecap:butt;stroke-linejoin:miter;stroke:rgb(0%,0%,0%);stroke-opacity:1;stroke-miterlimit:10;" d="M 75.496094 153.414062 L 104.535156 149.589844 "/>
<path style="fill:none;stroke-width:1.2;stroke-linecap:butt;stroke-linejoin:miter;stroke:rgb(0%,0%,0%);stroke-opacity:1;stroke-miterlimit:10;" d="M 104.535156 149.589844 L 122.363281 172.828125 "/>
<path style="fill:none;stroke-width:1.2;stroke-linecap:butt;stroke-linejoin:miter;stroke:rgb(0%,0%,0%);stroke-opacity:1;stroke-miterlimit:10;" d="M 100.851562 156.109375 L 115.113281 174.699219 "/>
<path style="fill:none;stroke-width:1.2;stroke-linecap:butt;stroke-linejoin:miter;stroke:rgb(0%,0%,0%);stroke-opacity:1;stroke-miterlimit:10;" d="M 122.363281 172.828125 L 111.15625 199.886719 "/>
<path style="fill:none;stroke-width:1.2;stroke-linecap:butt;stroke-linejoin:miter;stroke:rgb(0%,0%,0%);stroke-opacity:1;stroke-miterlimit:10;" d="M 122.363281 172.828125 L 151.402344 169.007812 "/>
<path style="fill:none;stroke-width:1.2;stroke-linecap:butt;stroke-linejoin:miter;stroke:rgb(0%,0%,0%);stroke-opacity:1;stroke-miterlimit:10;" d="M 111.15625 199.886719 L 82.117188 203.707031 "/>
<path style="fill:none;stroke-width:1.2;stroke-linecap:butt;stroke-linejoin:miter;stroke:rgb(0%,0%,0%);stroke-opacity:1;stroke-miterlimit:10;" d="M 107.351562 193.4375 L 84.121094 196.492188 "/>
<path style="fill:none;stroke-width:1.2;stroke-linecap:butt;stroke-linejoin:miter;stroke:rgb(0%,0%,0%);stroke-opacity:1;stroke-miterlimit:10;" d="M 151.402344 169.007812 L 171.5625 190.25 "/>
<path style="fill:none;stroke-width:1.2;stroke-linecap:butt;stroke-linejoin:miter;stroke:rgb(0%,0%,0%);stroke-opacity:1;stroke-miterlimit:10;" d="M 165.378906 143.265625 L 151.402344 169.007812 "/>
<path style="fill:none;stroke-width:1.2;stroke-linecap:butt;stroke-linejoin:miter;stroke:rgb(0%,0%,0%);stroke-opacity:1;stroke-miterlimit:10;" d="M 170.035156 149.128906 L 158.855469 169.71875 "/>
<path style="fill:none;stroke-width:1.2;stroke-linecap:butt;stroke-linejoin:miter;stroke:rgb(0%,0%,0%);stroke-opacity:1;stroke-miterlimit:10;" d="M 171.5625 190.25 L 170.414062 204.851562 "/>
<path style="fill:none;stroke-width:1.2;stroke-linecap:butt;stroke-linejoin:miter;stroke:rgb(0%,0%,100%);stroke-opacity:1;stroke-miterlimit:10;" d="M 170.414062 204.851562 L 169.261719 219.449219 "/>
<path style="fill:none;stroke-width:1.2;stroke-linecap:butt;stroke-linejoin:miter;stroke:rgb(0%,0%,0%);stroke-opacity:1;stroke-miterlimit:10;" d="M 178.203125 193.710938 L 177.28125 205.390625 "/>
<path style="fill:none;stroke-width:1.2;stroke-linecap:butt;stroke-linejoin:miter;stroke:rgb(0%,0%,100%);stroke-opacity:1;stroke-miterlimit:10;" d="M 177.28125 205.390625 L 176.363281 217.070312 "/>
<path style="fill:none;stroke-width:1.2;stroke-linecap:butt;stroke-linejoin:miter;stroke:rgb(0%,0%,0%);stroke-opacity:1;stroke-miterlimit:10;" d="M 197.996094 177.644531 L 171.5625 190.25 "/>
<path style="fill:none;stroke-width:1.2;stroke-linecap:butt;stroke-linejoin:miter;stroke:rgb(0%,0%,100%);stroke-opacity:1;stroke-miterlimit:10;" d="M 169.261719 219.449219 L 181.332031 227.746094 "/>
<path style="fill:none;stroke-width:1.2;stroke-linecap:butt;stroke-linejoin:miter;stroke:rgb(0%,0%,0%);stroke-opacity:1;stroke-miterlimit:10;" d="M 181.332031 227.746094 L 193.398438 236.039062 "/>
<path style=" stroke:none;fill-rule:nonzero;fill:rgb(100%,100%,100%);fill-opacity:1;" d="M 165.261719 212.449219 L 174.261719 212.449219 L 174.261719 226.449219 L 165.261719 226.449219 Z M 165.261719 212.449219 "/>
<g style="fill:rgb(0%,0%,100%);fill-opacity:1;">
  <use xlink:href="#glyph0-2" x="165.261719" y="223.587891"/>
</g>
<path style="fill:none;stroke-width:1.2;stroke-linecap:butt;stroke-linejoin:miter;stroke:rgb(0%,0%,0%);stroke-opacity:1;stroke-miterlimit:10;" d="M 193.398438 236.039062 L 219.835938 223.433594 "/>
<path style="fill:none;stroke-width:1.2;stroke-linecap:butt;stroke-linejoin:miter;stroke:rgb(0%,0%,0%);stroke-opacity:1;stroke-miterlimit:10;" d="M 193.078125 228.558594 L 214.226562 218.472656 "/>
<path style="fill:none;stroke-width:1.2;stroke-linecap:butt;stroke-linejoin:miter;stroke:rgb(0%,0%,0%);stroke-opacity:1;stroke-miterlimit:10;" d="M 219.835938 223.433594 L 222.132812 194.234375 "/>
<path style="fill:none;stroke-width:1.2;stroke-linecap:butt;stroke-linejoin:miter;stroke:rgb(0%,0%,0%);stroke-opacity:1;stroke-miterlimit:10;" d="M 222.132812 194.234375 L 197.996094 177.644531 "/>
<path style="fill:none;stroke-width:1.2;stroke-linecap:butt;stroke-linejoin:miter;stroke:rgb(0%,0%,0%);stroke-opacity:1;stroke-miterlimit:10;" d="M 215.816406 198.253906 L 196.507812 184.980469 "/>
<path style="fill:none;stroke-width:1.2;stroke-linecap:butt;stroke-linejoin:miter;stroke:rgb(0%,0%,0%);stroke-opacity:1;stroke-miterlimit:10;" d="M 197.996094 177.644531 L 196.085938 163.125 "/>
<path style="fill:none;stroke-width:1.2;stroke-linecap:butt;stroke-linejoin:miter;stroke:rgb(0%,0%,100%);stroke-opacity:1;stroke-miterlimit:10;" d="M 196.085938 163.125 L 194.175781 148.605469 "/>
<path style="fill:none;stroke-width:1.2;stroke-linecap:butt;stroke-linejoin:miter;stroke:rgb(0%,0%,100%);stroke-opacity:1;stroke-miterlimit:10;" d="M 194.175781 148.605469 L 204.800781 138.527344 "/>
<path style="fill:none;stroke-width:1.2;stroke-linecap:butt;stroke-linejoin:miter;stroke:rgb(0%,0%,0%);stroke-opacity:1;stroke-miterlimit:10;" d="M 204.800781 138.527344 L 215.421875 128.445312 "/>
<path style="fill:none;stroke-width:1.2;stroke-linecap:butt;stroke-linejoin:miter;stroke:rgb(0%,0%,100%);stroke-opacity:1;stroke-miterlimit:10;" d="M 194.175781 148.605469 L 179.777344 145.9375 "/>
<path style="fill:none;stroke-width:1.2;stroke-linecap:butt;stroke-linejoin:miter;stroke:rgb(0%,0%,0%);stroke-opacity:1;stroke-miterlimit:10;" d="M 179.777344 145.9375 L 165.378906 143.265625 "/>
<path style=" stroke:none;fill-rule:nonzero;fill:rgb(100%,100%,100%);fill-opacity:1;" d="M 190.175781 141.605469 L 199.175781 141.605469 L 199.175781 155.605469 L 190.175781 155.605469 Z M 190.175781 141.605469 "/>
<g style="fill:rgb(0%,0%,100%);fill-opacity:1;">
  <use xlink:href="#glyph0-2" x="190.175781" y="152.744141"/>
</g>
<path style="fill:none;stroke-width:1.2;stroke-linecap:butt;stroke-linejoin:miter;stroke:rgb(0%,0%,0%);stroke-opacity:1;stroke-miterlimit:10;" d="M 215.421875 128.445312 L 243.503906 136.765625 "/>
<path style="fill:none;stroke-width:1.2;stroke-linecap:butt;stroke-linejoin:miter;stroke:rgb(0%,0%,0%);stroke-opacity:1;stroke-miterlimit:10;" d="M 240.152344 137.570312 L 243.570312 151.808594 "/>
<path style="fill:none;stroke-width:1.2;stroke-linecap:butt;stroke-linejoin:miter;stroke:rgb(100%,0%,0%);stroke-opacity:1;stroke-miterlimit:10;" d="M 243.570312 151.808594 L 246.988281 166.050781 "/>
<path style="fill:none;stroke-width:1.2;stroke-linecap:butt;stroke-linejoin:miter;stroke:rgb(0%,0%,0%);stroke-opacity:1;stroke-miterlimit:10;" d="M 246.855469 135.960938 L 250.273438 150.203125 "/>
<path style="fill:none;stroke-width:1.2;stroke-linecap:butt;stroke-linejoin:miter;stroke:rgb(100%,0%,0%);stroke-opacity:1;stroke-miterlimit:10;" d="M 250.273438 150.203125 L 253.691406 164.441406 "/>
<path style="fill:none;stroke-width:1.2;stroke-linecap:butt;stroke-linejoin:miter;stroke:rgb(0%,0%,0%);stroke-opacity:1;stroke-miterlimit:10;" d="M 243.503906 136.765625 L 254.128906 126.6875 "/>
<path style="fill:none;stroke-width:1.2;stroke-linecap:butt;stroke-linejoin:miter;stroke:rgb(100%,0%,0%);stroke-opacity:1;stroke-miterlimit:10;" d="M 254.128906 126.6875 L 264.75 116.605469 "/>
<path style=" stroke:none;fill-rule:nonzero;fill:rgb(100%,100%,100%);fill-opacity:1;" d="M 245.339844 158.246094 L 255.339844 158.246094 L 255.339844 172.246094 L 245.339844 172.246094 Z M 245.339844 158.246094 "/>
<g style="fill:rgb(100%,0%,0%);fill-opacity:1;">
  <use xlink:href="#glyph0-3" x="245.339844" y="169.384766"/>
</g>
<path style=" stroke:none;fill-rule:nonzero;fill:rgb(100%,100%,100%);fill-opacity:1;" d="M 257.75 108.105469 L 271.75 108.105469 L 271.75 125.105469 L 257.75 125.105469 Z M 257.75 108.105469 "/>
<g style="fill:rgb(100%,0%,0%);fill-opacity:1;">
  <use xlink:href="#glyph0-3" x="257.75" y="122.270508"/>
</g>
<g style="fill:rgb(100%,0%,0%);fill-opacity:1;">
  <use xlink:href="#glyph1-1" x="267.195312" y="117.387695"/>
</g>
<path style="fill:none;stroke-width:1.2;stroke-linecap:butt;stroke-linejoin:miter;stroke:rgb(0%,0%,0%);stroke-opacity:1;stroke-miterlimit:10;" d="M 165.378906 143.265625 L 152.769531 116.832031 "/>
<path style="fill:none;stroke-width:1.2;stroke-linecap:butt;stroke-linejoin:miter;stroke:rgb(0%,0%,0%);stroke-opacity:1;stroke-miterlimit:10;" d="M 152.769531 116.832031 L 169.359375 92.695312 "/>
<path style="fill:none;stroke-width:1.2;stroke-linecap:butt;stroke-linejoin:miter;stroke:rgb(0%,0%,0%);stroke-opacity:1;stroke-miterlimit:10;" d="M 148.75 110.515625 L 162.023438 91.203125 "/>
<path style="fill:none;stroke-width:1.2;stroke-linecap:butt;stroke-linejoin:miter;stroke:rgb(0%,0%,0%);stroke-opacity:1;stroke-miterlimit:10;" d="M 123.574219 114.53125 L 152.769531 116.832031 "/>
<path style="fill:none;stroke-width:1.2;stroke-linecap:butt;stroke-linejoin:miter;stroke:rgb(0%,0%,0%);stroke-opacity:1;stroke-miterlimit:10;" d="M 169.359375 92.695312 L 156.753906 66.257812 "/>
<path style="fill:none;stroke-width:1.2;stroke-linecap:butt;stroke-linejoin:miter;stroke:rgb(0%,0%,0%);stroke-opacity:1;stroke-miterlimit:10;" d="M 156.753906 66.257812 L 142.152344 65.109375 "/>
<path style="fill:none;stroke-width:1.2;stroke-linecap:butt;stroke-linejoin:miter;stroke:rgb(0%,0%,100%);stroke-opacity:1;stroke-miterlimit:10;" d="M 142.152344 65.109375 L 127.554688 63.960938 "/>
<path style="fill:none;stroke-width:1.2;stroke-linecap:butt;stroke-linejoin:miter;stroke:rgb(0%,0%,0%);stroke-opacity:1;stroke-miterlimit:10;" d="M 153.292969 72.898438 L 141.613281 71.980469 "/>
<path style="fill:none;stroke-width:1.2;stroke-linecap:butt;stroke-linejoin:miter;stroke:rgb(0%,0%,100%);stroke-opacity:1;stroke-miterlimit:10;" d="M 141.613281 71.980469 L 129.933594 71.058594 "/>
<path style="fill:none;stroke-width:1.2;stroke-linecap:butt;stroke-linejoin:miter;stroke:rgb(0%,0%,100%);stroke-opacity:1;stroke-miterlimit:10;" d="M 127.554688 63.960938 L 119.261719 76.027344 "/>
<path style="fill:none;stroke-width:1.2;stroke-linecap:butt;stroke-linejoin:miter;stroke:rgb(0%,0%,0%);stroke-opacity:1;stroke-miterlimit:10;" d="M 119.261719 76.027344 L 110.964844 88.097656 "/>
<path style=" stroke:none;fill-rule:nonzero;fill:rgb(100%,100%,100%);fill-opacity:1;" d="M 123.554688 56.960938 L 132.554688 56.960938 L 132.554688 70.960938 L 123.554688 70.960938 Z M 123.554688 56.960938 "/>
<g style="fill:rgb(0%,0%,100%);fill-opacity:1;">
  <use xlink:href="#glyph0-2" x="123.554688" y="68.099609"/>
</g>
<path style="fill:none;stroke-width:1.2;stroke-linecap:butt;stroke-linejoin:miter;stroke:rgb(0%,0%,0%);stroke-opacity:1;stroke-miterlimit:10;" d="M 110.964844 88.097656 L 123.574219 114.53125 "/>
<path style="fill:none;stroke-width:1.2;stroke-linecap:butt;stroke-linejoin:miter;stroke:rgb(0%,0%,0%);stroke-opacity:1;stroke-miterlimit:10;" d="M 118.445312 87.773438 L 128.53125 108.921875 "/>
</g>
</svg>

<svg xmlns="http://www.w3.org/2000/svg" xmlns:xlink="http://www.w3.org/1999/xlink" width="300pt" height="300pt" viewBox="0 0 300 300"><defs><symbol overflow="visible"><path d="M.594 2.125V-8.47h6V2.126zm.672-.672h4.671V-7.78h-4.67zm0 0"/></symbol><symbol overflow="visible" id="a"><path d="M1.172-8.75h5.03v1H2.36v2.578h3.468v1h-3.47V0H1.173zm0 0"/></symbol><symbol overflow="visible" id="b"><path d="M1.172-8.75h1.594l3.89 7.313V-8.75h1.14V0H6.204L2.328-7.313V0H1.172zm0 0"/></symbol><symbol overflow="visible" id="c"><path d="M4.734-7.953c-.867 0-1.554.324-2.062.97-.5.635-.75 1.51-.75 2.624 0 1.094.25 1.965.75 2.61.508.637 1.195.953 2.062.953.852 0 1.532-.316 2.032-.953.507-.645.765-1.516.765-2.61 0-1.113-.257-1.988-.764-2.624-.5-.645-1.18-.97-2.032-.97zm0-.953c1.22 0 2.192.414 2.922 1.234.74.824 1.11 1.93 1.11 3.313 0 1.376-.37 2.477-1.11 3.298C6.926-.24 5.953.17 4.734.17c-1.23 0-2.214-.41-2.953-1.234C1.04-1.882.673-2.984.673-4.36c0-1.382.367-2.488 1.11-3.312.738-.82 1.722-1.234 2.952-1.234zm0 0"/></symbol><symbol overflow="visible"><path d="M.5 1.766v-8.813h5v8.813zm.563-.547h3.875v-7.704H1.063zm0 0"/></symbol><symbol overflow="visible" id="d"><path d="M.484-3.14h2.64v.796H.485zm0 0"/></symbol></defs><g><path fill="#fff" d="M0 0h300v300H0z"/><path d="M35.25 184.293l14.52-1.91" stroke-width="1.2" stroke="#3cc" stroke-miterlimit="10" fill="none"/><path d="M49.77 182.383l14.52-1.914" stroke-width="1.2" stroke="#000" stroke-miterlimit="10" fill="none"/><path d="M28.25 177.293h7v14h-7zm0 0" fill="#fff"/><use xlink:href="#a" x="28.25" y="188.432" fill="#3cc"/><path d="M64.29 180.47l11.206-27.056M71.777 180.402l8.965-21.648M82.117 203.707L64.29 180.47M75.496 153.414l29.04-3.824M104.535 149.59l17.828 23.238M100.852 156.11l14.26 18.59M122.363 172.828l-11.207 27.06M122.363 172.828l29.04-3.82M111.156 199.887l-29.04 3.82M107.352 193.438l-23.23 3.054M151.402 169.008l20.16 21.242M165.38 143.266L151.4 169.008M170.035 149.13l-11.18 20.59M171.563 190.25l-1.15 14.602" stroke-width="1.2" stroke="#000" stroke-miterlimit="10" fill="none"/><path d="M170.414 204.852l-1.152 14.597" stroke-width="1.2" stroke="#00f" stroke-miterlimit="10" fill="none"/><path d="M178.203 193.71l-.922 11.68" stroke-width="1.2" stroke="#000" stroke-miterlimit="10" fill="none"/><path d="M177.28 205.39l-.917 11.68" stroke-width="1.2" stroke="#00f" stroke-miterlimit="10" fill="none"/><path d="M197.996 177.645l-26.434 12.605" stroke-width="1.2" stroke="#000" stroke-miterlimit="10" fill="none"/><path d="M169.262 219.45l12.07 8.296" stroke-width="1.2" stroke="#00f" stroke-miterlimit="10" fill="none"/><path d="M181.332 227.746l12.066 8.293" stroke-width="1.2" stroke="#000" stroke-miterlimit="10" fill="none"/><path d="M165.262 212.45h9v14h-9zm0 0" fill="#fff"/><use xlink:href="#b" x="165.262" y="223.588" fill="#00f"/><path d="M193.398 236.04l26.438-12.606M193.078 228.56l21.15-10.087M219.836 223.434l2.297-29.2M222.133 194.234l-24.137-16.59M215.816 198.254l-19.308-13.274M197.996 177.645l-1.91-14.52" stroke-width="1.2" stroke="#000" stroke-miterlimit="10" fill="none"/><path d="M196.086 163.125l-1.91-14.52M194.176 148.605l10.625-10.078" stroke-width="1.2" stroke="#00f" stroke-miterlimit="10" fill="none"/><path d="M204.8 138.527l10.622-10.082" stroke-width="1.2" stroke="#000" stroke-miterlimit="10" fill="none"/><path d="M194.176 148.605l-14.4-2.667" stroke-width="1.2" stroke="#00f" stroke-miterlimit="10" fill="none"/><path d="M179.777 145.938l-14.398-2.672" stroke-width="1.2" stroke="#000" stroke-miterlimit="10" fill="none"/><path d="M190.176 141.605h9v14h-9zm0 0" fill="#fff"/><use xlink:href="#b" x="190.176" y="152.744" fill="#00f"/><path d="M215.422 128.445l28.082 8.32M240.152 137.57l3.418 14.24" stroke-width="1.2" stroke="#000" stroke-miterlimit="10" fill="none"/><path d="M243.57 151.81l3.418 14.24" stroke-width="1.2" stroke="#f00" stroke-miterlimit="10" fill="none"/><path d="M246.855 135.96l3.418 14.243" stroke-width="1.2" stroke="#000" stroke-miterlimit="10" fill="none"/><path d="M250.273 150.203l3.418 14.238" stroke-width="1.2" stroke="#f00" stroke-miterlimit="10" fill="none"/><path d="M243.504 136.766l10.625-10.078" stroke-width="1.2" stroke="#000" stroke-miterlimit="10" fill="none"/><path d="M254.13 126.688l10.62-10.083" stroke-width="1.2" stroke="#f00" stroke-miterlimit="10" fill="none"/><path d="M245.34 158.246h10v14h-10zm0 0" fill="#fff"/><use xlink:href="#c" x="245.34" y="169.385" fill="#f00"/><path d="M257.75 108.105h14v17h-14zm0 0" fill="#fff"/><use xlink:href="#c" x="257.75" y="122.271" fill="#f00"/><use xlink:href="#d" x="267.195" y="117.388" fill="#f00"/><path d="M165.38 143.266l-12.61-26.434M152.77 116.832l16.59-24.137M148.75 110.516l13.273-19.313M123.574 114.53l29.196 2.302M169.36 92.695l-12.606-26.437M156.754 66.258l-14.602-1.15" stroke-width="1.2" stroke="#000" stroke-miterlimit="10" fill="none"/><path d="M142.152 65.11l-14.597-1.15" stroke-width="1.2" stroke="#00f" stroke-miterlimit="10" fill="none"/><path d="M153.293 72.898l-11.68-.918" stroke-width="1.2" stroke="#000" stroke-miterlimit="10" fill="none"/><path d="M141.613 71.98l-11.68-.92M127.555 63.96l-8.293 12.067" stroke-width="1.2" stroke="#00f" stroke-miterlimit="10" fill="none"/><path d="M119.262 76.027l-8.297 12.07" stroke-width="1.2" stroke="#000" stroke-miterlimit="10" fill="none"/><path d="M123.555 56.96h9v14h-9zm0 0" fill="#fff"/><use xlink:href="#b" x="123.555" y="68.1" fill="#00f"/><path d="M110.965 88.098l12.61 26.433M118.445 87.773l10.086 21.15" stroke-width="1.2" stroke="#000" stroke-miterlimit="10" fill="none"/></g></svg>
